X:1
T:Castroville, 10.10 D
T:Castroville, 10.10 D
T:T. Hewlett, before 1922
T:Public Domain Courtesy of the Cyber Hymnal™
C:T. Hewlett, before 1922
Z:Public Domain
Z:Courtesy of the Cyber Hymnal™
%%score ( 1 2 ) 3
L:1/8
Q:1/4=110
M:4/4
K:Eb
V:1 treble 
V:2 treble 
V:3 bass 
V:1
 [EB]4 | [DG]2 [DF]2 E2 E2 | [EF]2 [EG]2 B3 (z A) | [EG]4 [EG]4 | [FG]2 [EG]2 [Ge]2 [Ge]2 | %5
 [^Fd]2 [DB]2 G3 (z G) | [D^F]4 [DG]4 | [GB]2 [GB]2 [GB]2 [FA]2 | [FA]2 [EG]2 F2 [Fc]2 | B4 [Be]4 | %10
 e3 (z e) [Ae]2 [Ec]2 | [EB]2 [E=A]2 [EB]2 [DF]2 | !fermata!E4 |] %13
V:2
 x4 | x4 E2 E2 | x4 E2 D2 x | x8 | x8 | x4 D2 C2 x | x8 | x8 | x4 F2 x2 | B4 x4 | G2 G2 x5 | x8 | %12
 E4 |] %13
V:3
 [E,G,]4 | [B,,B,]2 [B,,A,]2 [C,G,]2 [G,B,]2 | [A,C]2 [G,B,]2 [F,C]2 [B,,B,]2 x | [E,B,]4 [E,B,]4 | %4
 [D,=B,]2 [C,C]2 [C,C]2 [C,_B,]2 | [D,=A,]2 [G,B,]2 [E,B,]2 [E,G,]2 x | [D,=A,]4 [G,B,]4 | %7
 [G,D]2 [F,_D]2 [E,C]2 [F,C]2 | [B,,D]2 [B,E]2 [=A,E]2 [_A,D]2 | [G,E]4 [G,E]4 | %10
 [E,_D]2 [E,D]2 [A,C]2 [A,,A,]2 x | [B,,G,]2 [C,^F,]2 [B,,G,]2 [B,,A,]2 | !fermata![E,G,]4 |] %13

